src/catppuccin-macchiato-sky-cursors/fleur_24.svg

<?xml version="1.0" encoding="UTF-8" standalone="no"?>
<svg
   id="svg5327"
   width="24"
   height="24"
   version="1.1"
   sodipodi:docname="fleur_24.svg"
   inkscape:version="1.1.2 (0a00cf5339, 2022-02-04)"
   xmlns:inkscape="http://www.inkscape.org/namespaces/inkscape"
   xmlns:sodipodi="http://sodipodi.sourceforge.net/DTD/sodipodi-0.dtd"
   xmlns="http://www.w3.org/2000/svg"
   xmlns:svg="http://www.w3.org/2000/svg">
  <sodipodi:namedview
     id="namedview13"
     pagecolor="#ffffff"
     bordercolor="#666666"
     borderopacity="1.0"
     inkscape:pageshadow="2"
     inkscape:pageopacity="0.0"
     inkscape:pagecheckerboard="0"
     showgrid="true"
     inkscape:zoom="19.9"
     inkscape:cx="3.919598"
     inkscape:cy="13.467337"
     inkscape:window-width="1896"
     inkscape:window-height="1020"
     inkscape:window-x="9"
     inkscape:window-y="45"
     inkscape:window-maximized="1"
     inkscape:current-layer="svg5327">
    <inkscape:grid
       type="xygrid"
       id="grid1372" />
  </sodipodi:namedview>
  <defs
     id="defs5329">
    <filter
       id="filter937"
       style="color-interpolation-filters:sRGB"
       width="1.152"
       height="1.099"
       x="-0.079999998"
       y="-0.050000001">
      <feGaussianBlur
         id="feGaussianBlur939"
         stdDeviation=".413" />
    </filter>
    <filter
       id="filter939"
       style="color-interpolation-filters:sRGB"
       width="1.12"
       height="1.12"
       x="-0.059999999"
       y="-0.059999999">
      <feGaussianBlur
         id="feGaussianBlur941"
         stdDeviation=".675" />
    </filter>
    <filter
       id="filter820"
       style="color-interpolation-filters:sRGB"
       width="1.144"
       height="1.144"
       x="-0.072000001"
       y="-0.072000002">
      <feGaussianBlur
         id="feGaussianBlur822"
         stdDeviation=".81" />
    </filter>
    <filter
       inkscape:collect="always"
       style="color-interpolation-filters:sRGB"
       id="filter2317"
       x="-0.022749736"
       y="-0.02274932"
       width="1.0454995"
       height="1.0454986">
      <feGaussianBlur
         inkscape:collect="always"
         stdDeviation="0.19905289"
         id="feGaussianBlur2319" />
    </filter>
  </defs>
  <path
     style="color:#000000;opacity:0.1;fill:#000000;fill-opacity:1;stroke-linecap:round;stroke-linejoin:round;-inkscape-stroke:none;filter:url(#filter2317)"
     d="M 11.995711,1.500387 A 1.0001,1.0001 0 0 0 11.155867,1.9593714 L 7.737898,7.2796839 A 1.0001,1.0001 0 0 0 7.798445,7.6917932 1.0001,1.0001 0 0 0 7.2789138,7.7386682 L 1.9586012,11.162497 a 1.0001,1.0001 0 0 0 0,1.681641 l 5.3203125,3.417969 a 1.0001,1.0001 0 0 0 0.5195312,0.04687 1.0001,1.0001 0 0 0 -0.060547,0.412109 l 3.4179691,5.320313 a 1.0001,1.0001 0 0 0 1.681641,0 l 3.423828,-5.320313 a 1.0001,1.0001 0 0 0 0.04687,-0.519531 1.0001,1.0001 0 0 0 0.412109,0.06055 l 5.320313,-3.417969 a 1.0001,1.0001 0 0 0 0,-1.681641 L 16.72032,7.7386682 A 1.0001,1.0001 0 0 0 16.308211,7.7992152 1.0001,1.0001 0 0 0 16.261341,7.279684 L 12.837508,1.9593714 A 1.0001,1.0001 0 0 0 11.995711,1.500387 Z m 0.002,2.8496094 0.851562,1.3222656 C 12.557357,5.6269509 12.306225,5.5005834 11.997664,5.500387 11.689068,5.5002008 11.439513,5.6288811 11.148055,5.6742151 Z M 10.499617,7.828512 v 2.671876 H 7.8277418 C 8.0327339,9.9919646 8.2994255,9.5422388 8.5640699,9.2464808 A 1.0001,1.0001 0 0 0 8.7378981,8.5726526 1.0001,1.0001 0 0 0 9.2437574,8.5667933 C 9.542051,8.301211 9.9919311,8.0340078 10.499617,7.828512 Z m 3,0 c 0.508422,0.204992 0.958148,0.4716835 1.253906,0.7363281 a 1.0001,1.0001 0 0 0 0.675782,0.1738282 1.0001,1.0001 0 0 0 0.0059,0.5078125 c 0.264603,0.2957579 0.531295,0.7454838 0.736287,1.2539072 h -2.671875 z m -7.8281252,3.322267 c -0.045311,0.291869 -0.1716786,0.543001 -0.171875,0.851562 -1.864e-4,0.308596 0.1284941,0.558151 0.1738281,0.84961 l -1.3242187,-0.84961 z m 12.6562502,0 1.322266,0.851562 -1.324219,0.84961 c 0.04533,-0.29146 0.174016,-0.541012 0.173828,-0.84961 -1.97e-4,-0.308561 -0.126564,-0.559693 -0.171875,-0.851562 z M 7.8277418,13.500388 h 2.6718752 v 2.671875 C 9.9919312,15.966767 9.5420512,15.699564 9.2437574,15.433982 a 1.0001,1.0001 0 0 0 -0.5058593,-0.0059 1.0001,1.0001 0 0 0 -0.171875,-0.671875 C 8.3004406,14.457954 8.0332376,14.008074 7.8277418,13.500388 Z m 5.6718752,0 h 2.671875 c -0.205496,0.507684 -0.472697,0.957564 -0.738281,1.255859 a 1.0001,1.0001 0 0 0 -0.0059,0.50586 1.0001,1.0001 0 0 0 -0.673828,0.173828 c -0.295718,0.264644 -0.745444,0.531336 -1.253866,0.736328 z m -2.351562,4.826172 c 0.291458,0.04533 0.541013,0.174014 0.849609,0.173828 0.308561,-1.97e-4 0.559693,-0.126564 0.851562,-0.171875 l -0.851562,1.322266 z"
     id="path2279" />
  <path
     style="color:#000000;fill:#24273A;stroke-linecap:round;stroke-linejoin:round;-inkscape-stroke:none;fill-opacity:1"
     d="M 11.496094,1 A 1.0001,1.0001 0 0 0 10.65625,1.4589844 L 7.2382812,6.7792969 a 1.0001,1.0001 0 0 0 0.060547,0.4121093 1.0001,1.0001 0 0 0 -0.5195312,0.046875 L 1.4589844,10.662109 a 1.0001,1.0001 0 0 0 0,1.681641 l 5.3203125,3.417969 a 1.0001,1.0001 0 0 0 0.5195312,0.04687 1.0001,1.0001 0 0 0 -0.060547,0.412109 l 3.4179688,5.320313 a 1.0001,1.0001 0 0 0 1.681641,0 l 3.423828,-5.320313 a 1.0001,1.0001 0 0 0 0.04687,-0.519531 1.0001,1.0001 0 0 0 0.412109,0.06055 l 5.320313,-3.417969 a 1.0001,1.0001 0 0 0 0,-1.681641 L 16.220703,7.2382812 a 1.0001,1.0001 0 0 0 -0.412109,0.060547 1.0001,1.0001 0 0 0 -0.04687,-0.5195312 L 12.337891,1.4589844 A 1.0001,1.0001 0 0 0 11.496094,1 Z m 0.002,2.8496094 0.851562,1.3222656 C 12.05774,5.1265639 11.806608,5.0001964 11.498047,5 11.189451,4.9998138 10.939896,5.1284941 10.648438,5.1738281 Z M 10,7.328125 V 10 H 7.328125 C 7.5331171,9.4915776 7.7998087,9.0418518 8.0644531,8.7460938 A 1.0001,1.0001 0 0 0 8.2382813,8.0722656 1.0001,1.0001 0 0 0 8.7441406,8.0664063 C 9.0424342,7.800824 9.4923143,7.5336208 10,7.328125 Z m 3,0 c 0.508422,0.204992 0.958148,0.4716835 1.253906,0.7363281 a 1.0001,1.0001 0 0 0 0.675782,0.1738282 1.0001,1.0001 0 0 0 0.0059,0.5078125 C 15.200191,9.0418517 15.466883,9.4915776 15.671875,10 H 13 Z M 5.171875,10.650391 C 5.1265639,10.94226 5.0001964,11.193392 5,11.501953 c -1.864e-4,0.308596 0.1284941,0.558151 0.1738281,0.84961 l -1.3242187,-0.84961 z m 12.65625,0 1.322266,0.851562 -1.324219,0.84961 C 17.871505,12.060103 18.000188,11.810551 18,11.501953 17.999803,11.193392 17.873436,10.94226 17.828125,10.650391 Z M 7.328125,13 H 10 v 2.671875 C 9.4923144,15.466379 9.0424344,15.199176 8.7441406,14.933594 a 1.0001,1.0001 0 0 0 -0.5058593,-0.0059 1.0001,1.0001 0 0 0 -0.171875,-0.671875 C 7.8008238,13.957566 7.5336208,13.507686 7.328125,13 Z M 13,13 h 2.671875 c -0.205496,0.507684 -0.472697,0.957564 -0.738281,1.255859 a 1.0001,1.0001 0 0 0 -0.0059,0.50586 1.0001,1.0001 0 0 0 -0.673828,0.173828 C 13.958148,15.200191 13.508422,15.466883 13,15.671875 Z m -2.351562,4.826172 c 0.291458,0.04533 0.541013,0.174014 0.849609,0.173828 0.308561,-1.97e-4 0.559693,-0.126564 0.851562,-0.171875 l -0.851562,1.322266 z"
     id="path2081" />
  <path
     id="path819"
     style="fill:#91D7E3;fill-opacity:1;stroke:none;stroke-width:0;stroke-linecap:round;stroke-linejoin:round;stroke-miterlimit:4;stroke-dasharray:none;stroke-dashoffset:0;stroke-opacity:1;paint-order:normal"
     d="M 11.497032,2 8.08,7.32 C 8.8378758,6.645234 10.126361,5.9991728 11.497032,6 12.867704,6.0008725 14.161716,6.6414872 14.92,7.32 Z M 11,7 11,11 H 7 v 1 h 4 v 4 h 1 v -4 h 4 V 11 H 12 L 12,7 Z M 7.32,8.08 2,11.502969 7.32,14.92 C 6.645234,14.162124 5.9991723,12.873639 6,11.502969 6.0008725,10.132297 6.6414872,8.8382839 7.32,8.08 Z m 8.36,0 c 0.678513,0.7582839 1.319127,2.052297 1.32,3.422969 8.36e-4,1.37067 -0.645234,2.659155 -1.32,3.417031 L 21,11.502969 Z M 8.08,15.68 11.497032,21 14.92,15.68 C 14.161716,16.358513 12.867704,16.999127 11.497032,17 10.126361,17.000828 8.8378758,16.354766 8.08,15.68 Z"
     sodipodi:nodetypes="ccccccccccccccccccccccccccccccccc" />
</svg>

<svg xmlns="http://www.w3.org/2000/svg" width="24" height="24">
    <defs>
        <filter id="a" width="1.045" height="1.045" x="-.023" y="-.023" style="color-interpolation-filters:sRGB">
            <feGaussianBlur stdDeviation=".199"/>
        </filter>
    </defs>
    <path d="M11.996 1.5a1 1 0 0 0-.84.46L7.738 7.28a1 1 0 0 0 .06.412 1 1 0 0 0-.52.047l-5.32 3.423a1 1 0 0 0 0 1.682l5.32 3.418a1 1 0 0 0 .52.047 1 1 0 0 0-.06.412l3.418 5.32a1 1 0 0 0 1.682 0l3.423-5.32a1 1 0 0 0 .047-.52 1 1 0 0 0 .412.061l5.32-3.418a1 1 0 0 0 0-1.682L16.72 7.74a1 1 0 0 0-.412.06 1 1 0 0 0-.047-.52l-3.423-5.32a1 1 0 0 0-.842-.459m.002 2.85.851 1.322c-.292-.045-.543-.171-.851-.172-.309 0-.558.129-.85.174ZM10.5 7.829V10.5H7.828c.205-.508.471-.958.736-1.254a1 1 0 0 0 .174-.673 1 1 0 0 0 .506-.006c.298-.266.748-.533 1.256-.738m3 0c.508.205.958.471 1.254.736a1 1 0 0 0 .675.174 1 1 0 0 0 .006.507c.265.296.532.746.736 1.254H13.5zM5.67 11.15c-.045.292-.171.543-.171.851 0 .309.128.558.173.85l-1.324-.85zm12.657 0 1.322.851-1.324.85c.045-.292.174-.541.174-.85s-.127-.56-.172-.851m-10.5 2.35H10.5v2.671c-.508-.205-.958-.472-1.256-.738a1 1 0 0 0-.506-.006 1 1 0 0 0-.172-.672c-.266-.298-.533-.748-.738-1.256m5.672 0h2.671c-.205.507-.472.957-.738 1.255a1 1 0 0 0-.006.506 1 1 0 0 0-.674.174c-.295.265-.745.531-1.253.736zm-2.352 4.826c.292.045.541.174.85.173.308 0 .56-.126.851-.171l-.851 1.322z" style="color:#000;opacity:.1;fill:#000;fill-opacity:1;stroke-linecap:round;stroke-linejoin:round;-inkscape-stroke:none;filter:url(#a)"/>
    <path d="M11.496 1a1 1 0 0 0-.84.459l-3.418 5.32a1 1 0 0 0 .06.412 1 1 0 0 0-.519.047l-5.32 3.424a1 1 0 0 0 0 1.682l5.32 3.418a1 1 0 0 0 .52.047 1 1 0 0 0-.06.412l3.417 5.32a1 1 0 0 0 1.682 0l3.424-5.32a1 1 0 0 0 .047-.52 1 1 0 0 0 .412.06l5.32-3.417a1 1 0 0 0 0-1.682l-5.32-3.424a1 1 0 0 0-.412.06 1 1 0 0 0-.047-.519l-3.424-5.32A1 1 0 0 0 11.496 1m.002 2.85.852 1.322c-.292-.045-.543-.172-.852-.172s-.558.128-.85.174ZM10 7.328V10H7.328c.205-.508.472-.958.736-1.254a1 1 0 0 0 .174-.674 1 1 0 0 0 .506-.006c.298-.265.748-.532 1.256-.738m3 0c.508.205.958.472 1.254.736a1 1 0 0 0 .676.174 1 1 0 0 0 .006.508c.264.296.53.746.736 1.254H13ZM5.172 10.65c-.045.292-.172.543-.172.852s.128.558.174.85l-1.324-.85zm12.656 0 1.322.852-1.324.85c.046-.292.174-.541.174-.85s-.127-.56-.172-.852M7.328 13H10v2.672c-.508-.206-.958-.473-1.256-.738a1 1 0 0 0-.506-.006 1 1 0 0 0-.172-.672c-.265-.298-.532-.748-.738-1.256M13 13h2.672c-.206.508-.473.958-.738 1.256a1 1 0 0 0-.006.506 1 1 0 0 0-.674.174c-.296.264-.746.53-1.254.736Zm-2.352 4.826c.292.046.541.174.85.174s.56-.127.852-.172l-.852 1.322z" style="color:#000;fill:#24273a;stroke-linecap:round;stroke-linejoin:round;-inkscape-stroke:none;fill-opacity:1"/>
    <path d="M11.497 2 8.08 7.32C8.838 6.645 10.126 6 11.497 6s2.665.641 3.423 1.32ZM11 7v4H7v1h4v4h1v-4h4v-1h-4V7ZM7.32 8.08 2 11.503l5.32 3.417C6.645 14.162 6 12.874 6 11.503s.641-2.665 1.32-3.423m8.36 0c.679.758 1.32 2.052 1.32 3.423s-.645 2.66-1.32 3.417L21 11.503Zm-7.6 7.6L11.497 21l3.423-5.32c-.758.679-2.052 1.32-3.423 1.32s-2.66-.645-3.417-1.32" style="fill:#91d7e3;fill-opacity:1;stroke:none;stroke-width:0;stroke-linecap:round;stroke-linejoin:round;stroke-miterlimit:4;stroke-dasharray:none;stroke-dashoffset:0;stroke-opacity:1;paint-order:normal"/>
</svg>
